X: 18
T:Humours of Tulla, The
M:C|
L:1/8
R:Reel
K:D
fe[|~d3A BdAB|d2fd edBc|d2Ad BdAd|Bdef gefe|!
~d3A BdAB|dAfd edBc|d2Ad BdAd|Bdef gefg|]!
af (3fff df (3fff|af (3fff ge (3eee|af (3fff dfed|cdef gefg|!
af (3fff df (3fff|af (3fff ge (3eee|af (3fff dfed|cdef gefe|]!
